X: 38192
T: Sprig Of Shillelah, The
R: jig
M: 6/8
K: Gmajor
|:DGG GFG|ABA AGF|GBd dcB|
AcB AGF|GAB EFG|DEF G3:|
BGB dBd|ece d2c|BGB dBd|
gfe d2c|BcB BAG|ABA AGF|
GBd dcB|AcB AGF|GAB EFG|DEF G3||

